X:6997
T:Herv's
R:reel
C:Herv Cantal
D:Garry Shannon: Loozin' Air
Z:Devin McCabe
M:C|
L:1/8
K:BMin
~B3c d2fd|edfe dBBA|~G3B AGFA|dfaf gfed|
!BdfB dfBf|e2fe dBBA|GA (3Bcd ABdf|1afeg fed2:|2afeg fedf|
!|:e~A3 efge|fddc dfaf|g2bg efaf|e2fd edcd|
!~B2GB AGFA|dfaf ~g3a|b2af gfed|fafd e3d:|
